svg/mission-control-playbook.svg

<?xml version="1.0" encoding="UTF-8"?>
<svg xmlns="http://www.w3.org/2000/svg" xmlns:xlink="http://www.w3.org/1999/xlink" width="32.297001" height="32" viewBox="0 0 32.297001 32">
<path fill-rule="nonzero" fill="rgb(19.607843%, 42.352941%, 89.803922%)" fill-opacity="1" d="M 6.632812 7.460938 L 14.925781 3.46875 C 14.140625 2.945312 13.777344 1.976562 14.019531 1.066406 L 4.953125 5.433594 C 5.898438 5.664062 6.582031 6.488281 6.632812 7.460938 M 1.636719 17.953125 C 2.101562 17.953125 2.539062 18.09375 2.894531 18.34375 L 4.859375 9.734375 C 4.222656 9.859375 3.566406 9.699219 3.058594 9.292969 C 2.824219 9.109375 2.632812 8.878906 2.492188 8.617188 L 0.25 18.441406 C 0.511719 18.226562 0.820312 18.078125 1.148438 18.007812 C 1.308594 17.96875 1.472656 17.953125 1.636719 17.953125 M 29.242188 9.292969 C 28.851562 9.605469 28.367188 9.773438 27.867188 9.773438 C 27.722656 9.773438 27.578125 9.761719 27.4375 9.734375 L 29.402344 18.34375 C 29.761719 18.09375 30.195312 17.953125 30.660156 17.953125 C 30.824219 17.953125 30.988281 17.96875 31.148438 18.007812 C 31.480469 18.082031 31.789062 18.230469 32.050781 18.445312 L 29.804688 8.613281 C 29.667969 8.878906 29.476562 9.109375 29.242188 9.292969 M 17.371094 3.46875 L 25.664062 7.460938 C 25.710938 6.488281 26.394531 5.660156 27.34375 5.433594 L 18.277344 1.066406 C 18.519531 1.976562 18.15625 2.945312 17.371094 3.46875 M 30.171875 22.304688 C 29.570312 22.164062 29.054688 21.78125 28.75 21.242188 L 23.21875 28.175781 C 23.816406 28.347656 24.328125 28.765625 24.605469 29.335938 C 24.753906 29.636719 24.820312 29.957031 24.824219 30.269531 L 31.183594 22.296875 C 31.011719 22.335938 30.839844 22.359375 30.664062 22.359375 C 30.5 22.359375 30.335938 22.339844 30.171875 22.304688 M 20.636719 31.253906 C 20.363281 30.683594 20.347656 30.023438 20.59375 29.441406 L 11.703125 29.441406 C 12.085938 30.339844 11.828125 31.382812 11.070312 32 L 21.230469 32 C 20.980469 31.796875 20.777344 31.542969 20.636719 31.253906 M 9.078125 28.175781 L 3.546875 21.242188 C 3.0625 22.097656 2.070312 22.527344 1.117188 22.296875 L 7.472656 30.269531 C 7.476562 29.945312 7.550781 29.628906 7.691406 29.335938 C 7.96875 28.765625 8.480469 28.347656 9.078125 28.175781 M 31.023438 18.5625 C 30.90625 18.53125 30.78125 18.519531 30.660156 18.519531 C 30.109375 18.519531 29.59375 18.800781 29.292969 19.261719 L 22.742188 17.773438 L 22.75 17.765625 C 24.039062 17.019531 24.039062 15.160156 22.75 14.414062 L 21.273438 13.5625 L 27.019531 8.972656 C 27.277344 9.121094 27.570312 9.203125 27.867188 9.207031 C 28.222656 9.207031 28.582031 9.089844 28.886719 8.851562 C 29.429688 8.417969 29.636719 7.6875 29.40625 7.03125 C 29.230469 6.53125 28.824219 6.148438 28.316406 6 C 27.804688 5.855469 27.257812 5.964844 26.84375 6.296875 C 26.3125 6.722656 26.097656 7.433594 26.3125 8.082031 L 20.214844 12.953125 L 16.71875 10.933594 L 16.71875 3.167969 C 16.71875 3.167969 16.730469 3.164062 16.734375 3.160156 C 17.472656 2.878906 17.90625 2.113281 17.765625 1.335938 C 17.609375 0.503906 16.84375 -0.0742188 16 0.00390625 C 15.15625 0.0820312 14.511719 0.789062 14.511719 1.636719 C 14.511719 2.332031 14.949219 2.925781 15.5625 3.160156 C 15.570312 3.164062 15.574219 3.167969 15.578125 3.167969 L 15.578125 10.277344 L 13.757812 9.222656 C 12.46875 8.480469 10.855469 9.410156 10.855469 10.898438 L 10.855469 11.972656 L 5.984375 8.085938 C 6.207031 7.4375 5.992188 6.71875 5.453125 6.296875 C 5.078125 5.992188 4.585938 5.871094 4.113281 5.964844 C 3.640625 6.058594 3.234375 6.355469 3.003906 6.78125 C 2.742188 7.242188 2.726562 7.804688 2.957031 8.28125 C 3.324219 9.042969 4.210938 9.398438 5.003906 9.101562 C 5.097656 9.066406 5.191406 9.023438 5.277344 8.972656 L 10.855469 13.425781 L 10.855469 17.476562 L 3.003906 19.261719 C 2.933594 19.152344 2.847656 19.050781 2.753906 18.960938 C 2.449219 18.679688 2.050781 18.523438 1.636719 18.519531 C 1.515625 18.519531 1.390625 18.535156 1.273438 18.5625 C 0.847656 18.65625 0.480469 18.914062 0.25 19.28125 C 0.0195312 19.648438 -0.0546875 20.09375 0.0429688 20.515625 C 0.214844 21.289062 0.917969 21.828125 1.710938 21.792969 C 2.503906 21.757812 3.15625 21.15625 3.257812 20.371094 L 10.855469 18.644531 L 10.855469 21.28125 C 10.855469 22.292969 11.597656 23.046875 12.480469 23.191406 L 9.832031 28.667969 C 9.714844 28.65625 9.59375 28.65625 9.476562 28.671875 C 8.609375 28.769531 7.972656 29.527344 8.023438 30.398438 C 8.078125 31.269531 8.804688 31.941406 9.675781 31.929688 C 10.328125 31.929688 10.921875 31.539062 11.179688 30.9375 C 11.433594 30.335938 11.308594 29.636719 10.855469 29.164062 L 13.890625 22.878906 L 17.421875 20.84375 L 21.441406 29.164062 C 20.890625 29.734375 20.832031 30.617188 21.296875 31.257812 C 21.761719 31.894531 22.617188 32.105469 23.328125 31.761719 C 24.042969 31.421875 24.410156 30.617188 24.195312 29.855469 C 23.984375 29.09375 23.257812 28.589844 22.46875 28.667969 L 18.410156 20.273438 L 21.292969 18.609375 L 29.042969 20.371094 C 29.152344 21.183594 29.84375 21.789062 30.664062 21.789062 C 31.5 21.796875 32.203125 21.167969 32.292969 20.339844 C 32.382812 19.511719 31.839844 18.746094 31.027344 18.5625 Z M 27.421875 7.015625 C 27.570312 6.898438 27.757812 6.84375 27.945312 6.863281 C 28.335938 6.910156 28.617188 7.261719 28.574219 7.652344 C 28.550781 7.839844 28.457031 8.011719 28.308594 8.128906 C 28 8.371094 27.554688 8.320312 27.308594 8.015625 C 27.191406 7.867188 27.136719 7.679688 27.15625 7.492188 C 27.179688 7.304688 27.273438 7.132812 27.421875 7.015625 M 15.4375 1.632812 C 15.4375 1.242188 15.757812 0.921875 16.148438 0.921875 C 16.539062 0.921875 16.859375 1.242188 16.859375 1.632812 C 16.871094 1.894531 16.738281 2.144531 16.515625 2.28125 C 16.289062 2.417969 16.007812 2.417969 15.78125 2.28125 C 15.554688 2.148438 15.421875 1.894531 15.4375 1.632812 M 3.988281 8.128906 C 3.683594 7.882812 3.632812 7.4375 3.875 7.128906 C 4.121094 6.824219 4.566406 6.773438 4.875 7.015625 C 5.0625 7.164062 5.164062 7.394531 5.144531 7.632812 C 5.128906 7.871094 4.992188 8.085938 4.78125 8.199219 C 4.527344 8.339844 4.214844 8.3125 3.988281 8.128906 M 1.792969 20.847656 C 1.511719 20.910156 1.21875 20.796875 1.054688 20.5625 C 0.890625 20.324219 0.882812 20.015625 1.035156 19.769531 C 1.257812 19.472656 1.675781 19.394531 1.988281 19.597656 C 2.304688 19.796875 2.414062 20.207031 2.238281 20.535156 C 2.136719 20.695312 1.976562 20.808594 1.792969 20.847656 M 10.316406 30.605469 C 10.230469 30.773438 10.085938 30.902344 9.910156 30.96875 C 9.640625 31.0625 9.339844 30.984375 9.148438 30.769531 C 8.960938 30.554688 8.921875 30.25 9.046875 29.992188 C 9.15625 29.753906 9.390625 29.597656 9.652344 29.585938 C 9.914062 29.574219 10.160156 29.710938 10.289062 29.9375 C 10.40625 30.140625 10.417969 30.390625 10.316406 30.605469 M 23.261719 29.984375 C 23.34375 30.15625 23.355469 30.351562 23.292969 30.527344 C 23.230469 30.707031 23.101562 30.855469 22.929688 30.933594 C 22.757812 31.015625 22.5625 31.027344 22.382812 30.964844 C 22.207031 30.902344 22.058594 30.773438 21.980469 30.601562 C 21.898438 30.433594 21.886719 30.234375 21.949219 30.058594 C 22.011719 29.878906 22.140625 29.734375 22.3125 29.652344 C 22.667969 29.484375 23.089844 29.632812 23.261719 29.984375 M 18.40625 16.722656 L 15.023438 18.675781 C 14.796875 18.808594 14.519531 18.808594 14.292969 18.675781 C 14.066406 18.546875 13.925781 18.304688 13.933594 18.042969 L 13.933594 14.136719 C 13.933594 13.578125 14.539062 13.226562 15.023438 13.507812 L 18.40625 15.460938 C 18.628906 15.59375 18.765625 15.832031 18.765625 16.09375 C 18.765625 16.351562 18.628906 16.589844 18.40625 16.722656 M 31.355469 20.3125 C 31.253906 20.679688 30.882812 20.902344 30.511719 20.816406 C 30.140625 20.734375 29.898438 20.371094 29.96875 19.996094 C 30.082031 19.644531 30.445312 19.441406 30.804688 19.523438 C 31.164062 19.605469 31.402344 19.949219 31.355469 20.3125 M 31.355469 20.3125 "/>
</svg>

<svg role="img" viewBox="0 0 32.297 32" height="32" width="32.297" xmlns="http://www.w3.org/2000/svg"><path d="m6.633 7.46 8.293-3.991a2.208 2.208 0 0 1-.906-2.403L4.953 5.434a2.206 2.206 0 0 1 1.68 2.027M1.637 17.953c.465 0 .902.14 1.258.39l1.964-8.609a2.199 2.199 0 0 1-1.8-.441 2.147 2.147 0 0 1-.567-.676L.25 18.441c.262-.214.57-.363.898-.433.16-.04.325-.055.489-.055m27.605-8.66a2.2 2.2 0 0 1-1.375.48c-.144 0-.289-.011-.43-.039l1.965 8.61c.36-.25.793-.39 1.258-.39.164 0 .328.015.488.054.332.074.641.222.903.437l-2.246-9.832a2.058 2.058 0 0 1-.563.68m-11.87-5.824 8.292 3.992c.047-.973.73-1.8 1.68-2.027l-9.067-4.368a2.208 2.208 0 0 1-.906 2.403m12.8 18.836a2.207 2.207 0 0 1-1.421-1.063l-5.531 6.934c.597.172 1.11.59 1.386 1.16.149.3.215.621.22.934l6.359-7.973a2.34 2.34 0 0 1-.52.062c-.164 0-.328-.02-.492-.054m-9.535 8.949a2.206 2.206 0 0 1-.043-1.813h-8.89A2.191 2.191 0 0 1 11.07 32h10.16a2.205 2.205 0 0 1-.593-.746M9.078 28.176l-5.531-6.934a2.199 2.199 0 0 1-2.43 1.055l6.356 7.973a2.22 2.22 0 0 1 .218-.934c.278-.57.79-.988 1.387-1.16m21.945-9.613a1.422 1.422 0 0 0-.363-.043c-.55 0-1.066.28-1.367.742l-6.55-1.489.007-.007c1.29-.746 1.29-2.606 0-3.352l-1.477-.851 5.747-4.59c.257.148.55.23.847.234.356 0 .715-.117 1.02-.355.543-.434.75-1.165.52-1.82A1.642 1.642 0 0 0 28.316 6a1.638 1.638 0 0 0-1.473.297c-.532.426-.746 1.137-.532 1.785l-6.097 4.871-3.496-2.02V3.169s.011-.004.015-.008a1.64 1.64 0 0 0 1.032-1.824A1.643 1.643 0 0 0 16 .004a1.639 1.639 0 0 0-1.488 1.633c0 .695.437 1.289 1.05 1.523.008.004.012.008.016.008v7.11l-1.82-1.055c-1.29-.743-2.903.187-2.903 1.675v1.075l-4.87-3.887a1.61 1.61 0 0 0-.532-1.79 1.625 1.625 0 0 0-2.45.485 1.617 1.617 0 0 0-.046 1.5 1.634 1.634 0 0 0 2.047.82c.094-.035.187-.078.273-.128l5.578 4.453v4.05l-7.851 1.786a1.64 1.64 0 0 0-.25-.301 1.67 1.67 0 0 0-1.117-.441 1.62 1.62 0 0 0-.364.043 1.615 1.615 0 0 0-1.023.718c-.23.367-.305.813-.207 1.235a1.634 1.634 0 0 0 3.215-.145l7.597-1.726v2.636c0 1.012.743 1.766 1.625 1.91l-2.648 5.477a1.546 1.546 0 0 0-.355.004 1.64 1.64 0 0 0-1.454 1.726 1.632 1.632 0 0 0 1.653 1.532c.652 0 1.246-.39 1.504-.992a1.642 1.642 0 0 0-.325-1.774l3.036-6.285 3.53-2.035 4.02 8.32a1.634 1.634 0 0 0-.144 2.094c.465.637 1.32.847 2.031.504a1.623 1.623 0 0 0 .867-1.907 1.627 1.627 0 0 0-1.726-1.187l-4.059-8.395 2.883-1.664 7.75 1.762c.11.813.8 1.418 1.621 1.418a1.624 1.624 0 0 0 1.629-1.45 1.639 1.639 0 0 0-1.266-1.776ZM27.422 7.015a.723.723 0 0 1 .523-.153.72.72 0 0 1 .63.79.719.719 0 0 1-.266.476.717.717 0 0 1-1-.113.723.723 0 0 1-.153-.524.719.719 0 0 1 .266-.476M15.438 1.633c0-.39.32-.711.71-.711.391 0 .711.32.711.71a.726.726 0 0 1-.343.65.709.709 0 0 1-.735 0 .706.706 0 0 1-.344-.65M3.989 8.13a.717.717 0 0 1-.113-1 .717.717 0 0 1 1-.113.713.713 0 0 1-.094 1.184.71.71 0 0 1-.793-.071M1.793 20.848a.714.714 0 0 1-.758-1.078.71.71 0 0 1 .953-.172.71.71 0 0 1 .25.937.702.702 0 0 1-.445.313m8.523 9.757a.74.74 0 0 1-.406.364.704.704 0 0 1-.863-.977.7.7 0 0 1 1.242-.055.721.721 0 0 1 .027.668m12.946-.62a.708.708 0 0 1-.332.95.718.718 0 0 1-.547.03.696.696 0 0 1-.403-.363.708.708 0 0 1 .332-.95.716.716 0 0 1 .95.332m-4.856-13.261-3.383 1.953a.72.72 0 0 1-.73 0 .706.706 0 0 1-.36-.633v-3.906c0-.559.606-.91 1.09-.63l3.383 1.954a.734.734 0 0 1 0 1.262m12.95 3.59a.71.71 0 0 1-.844.503.708.708 0 0 1-.543-.82.71.71 0 0 1 .836-.473c.36.082.597.426.55.79m0 0" fill="rgb(19.607843%, 42.352941%, 89.803922%)"/></svg>
